icons/evolvere-blue-folders-flat-vivid-dark-fallback/apps/64/google-drive.svg

<?xml version="1.0" encoding="UTF-8" standalone="no"?>
<!-- Created with Inkscape (http://www.inkscape.org/) -->

<svg
   xmlns:dc="http://purl.org/dc/elements/1.1/"
   xmlns:cc="http://creativecommons.org/ns#"
   xmlns:rdf="http://www.w3.org/1999/02/22-rdf-syntax-ns#"
   xmlns:svg="http://www.w3.org/2000/svg"
   xmlns="http://www.w3.org/2000/svg"
   xmlns:sodipodi="http://sodipodi.sourceforge.net/DTD/sodipodi-0.dtd"
   xmlns:inkscape="http://www.inkscape.org/namespaces/inkscape"
   width="64"
   height="64"
   id="svg13094"
   version="1.1"
   inkscape:version="0.91+devel r"
   sodipodi:docname="google-drive.svg">
  <sodipodi:namedview
     id="base"
     pagecolor="#ffffff"
     bordercolor="#666666"
     borderopacity="1.0"
     inkscape:pageopacity="0"
     inkscape:pageshadow="2"
     inkscape:zoom="11.313709"
     inkscape:cx="30.064847"
     inkscape:cy="32.064158"
     inkscape:document-units="px"
     inkscape:current-layer="g4165"
     showgrid="true"
     inkscape:snap-bbox="true"
     inkscape:bbox-paths="true"
     inkscape:bbox-nodes="true"
     inkscape:snap-bbox-edge-midpoints="true"
     inkscape:snap-bbox-midpoints="true"
     inkscape:object-paths="true"
     inkscape:snap-intersection-paths="true"
     inkscape:object-nodes="true"
     inkscape:snap-smooth-nodes="true"
     inkscape:snap-midpoints="true"
     inkscape:snap-object-midpoints="true"
     inkscape:snap-center="true"
     showguides="false"
     inkscape:guide-bbox="true"
     inkscape:window-width="1920"
     inkscape:window-height="1023"
     inkscape:window-x="-10"
     inkscape:window-y="35"
     inkscape:window-maximized="1"
     inkscape:snap-global="true"
     fit-margin-top="0"
     fit-margin-left="0"
     fit-margin-right="0"
     fit-margin-bottom="0"
     showborder="true"
     inkscape:showpageshadow="false"
     inkscape:snap-page="true">
    <inkscape:grid
       type="xygrid"
       id="grid3075"
       empspacing="5"
       visible="true"
       enabled="true"
       snapvisiblegridlinesonly="true"
       originx="1.6362304e-08px"
       originy="18px" />
    <sodipodi:guide
       orientation="0,1"
       position="-11,30"
       id="guide9148" />
    <sodipodi:guide
       orientation="1,0"
       position="32,70"
       id="guide9150" />
  </sodipodi:namedview>
  <defs
     id="defs13096">
    <style
       id="style3015"
       type="text/css">
   
    .fil2 {fill:#11A861}
    .fil0 {fill:#3777E3}
    .fil1 {fill:#FFCF63}
   
  </style>
  </defs>
  <metadata
     id="metadata13099">
    <rdf:RDF>
      <cc:Work
         rdf:about="">
        <dc:format>image/svg+xml</dc:format>
        <dc:type
           rdf:resource="http://purl.org/dc/dcmitype/StillImage" />
        <dc:title></dc:title>
      </cc:Work>
    </rdf:RDF>
  </metadata>
  <path
     id="path6538"
     d="m 0,4 0,30 0,28 2,2 30,0 30,0 2,-2 L 64,34 64,4 32,4 0,4 Z"
     style="color:#000000;display:inline;overflow:visible;visibility:visible;fill:#aeb4c3;fill-opacity:1;fill-rule:nonzero;stroke:none;stroke-width:2.28571415;marker:none;enable-background:accumulate"
     inkscape:connector-curvature="0" />
  <path
     inkscape:connector-curvature="0"
     style="color:#000000;display:inline;overflow:visible;visibility:visible;fill:#e7ecf0;fill-opacity:1;fill-rule:nonzero;stroke:none;marker:none;enable-background:accumulate"
     d="M 2,0 0,1 0,4 19.5625,4 39.125,4 64,4 64,1 62,0 39.125,0 19.5625,0 2,0 Z"
     id="path6688" />
  <g
     id="g3043"
     inkscape:export-filename="folder.png"
     inkscape:export-xdpi="90"
     inkscape:export-ydpi="90"
     transform="translate(-0.62500009,0.082283)" />
  <g
     id="scalable"
     transform="matrix(1.0385892,0,0,1.0385892,1214.7222,1878.8121)"
     inkscape:label="#g3701"
     style="fill:#ffffff" />
  <path
     style="opacity:1;fill:#f2f5f7;fill-opacity:1;fill-rule:nonzero;stroke-width:1;stroke-linecap:butt;stroke-linejoin:miter;stroke-miterlimit:4;stroke-dasharray:none;stroke-dashoffset:0;stroke-opacity:1"
     d="M 0,3 0,6 2,4 Z"
     id="path4298"
     inkscape:connector-curvature="0"
     sodipodi:nodetypes="cccc" />
  <path
     inkscape:connector-curvature="0"
     style="opacity:1;fill:#ccd1db;fill-opacity:1;stroke:none;stroke-width:1;stroke-linecap:butt;stroke-linejoin:miter;stroke-miterlimit:4;stroke-dasharray:none;stroke-dashoffset:0;stroke-opacity:1;marker:none"
     id="path3028"
     d="M 64,6 62,4 64,3 Z" />
  <g
     id="g4165">
    <path
       id="polygon3019"
       d="M 38.9375 15.8125 L 18.09375 51.9375 L 30.15625 64 L 32 64 L 60.71875 64 L 64 58.34375 L 64 49.0625 L 52.75 29.625 L 38.9375 15.8125 z "
       style="fill:#000000;fill-opacity:0.09391771;fill-rule:evenodd" />
    <polygon
       transform="matrix(3.1320172e-4,0,0,3.1320172e-4,11.147655,15.8125)"
       style="fill:#3176d5;fill-opacity:1;fill-rule:evenodd"
       class="fil0"
       points="44385,76894 133156,76894 110963,115341 22194,115341 "
       id="polygon3064"
       inkscape:transform-center-x="-3.4755986"
       inkscape:transform-center-y="9.9166665" />
    <polygon
       transform="matrix(3.1320172e-4,0,0,3.1320172e-4,11.147655,15.8125)"
       style="fill:#f3ba3c;fill-opacity:1;fill-rule:evenodd"
       class="fil1"
       points="133156,76894 88772,0 44385,0 88772,76894 "
       id="polygon3042"
       inkscape:transform-center-x="-6.9507282"
       inkscape:transform-center-y="-8.1458335" />
    <polygon
       transform="matrix(3.1320172e-4,0,0,3.1320172e-4,11.147655,15.8125)"
       style="fill:#20a869;fill-opacity:1;fill-rule:evenodd"
       class="fil2"
       points="22194,115341 66578,38447 44385,0 0,76894 "
       id="polygon3020"
       inkscape:transform-center-x="10.426173"
       inkscape:transform-center-y="-2.1250003" />
  </g>
</svg>

<svg xmlns="http://www.w3.org/2000/svg" viewBox="0 0 64 64"><g color="#000"><path d="m0 4v30 28l2 2h30 30l2-2v-28-30h-32-32" fill="#aeb4c3"/><path d="m2 0l-2 1v3h19.563 19.563 24.875v-3l-2-1h-22.875-19.563-17.563" fill="#e7ecf0"/></g><path d="m0 3v3l2-2" fill="#f2f5f7"/><path d="m64 6l-2-2 2-1" fill="#ccd1db"/><g fill-rule="evenodd"><path d="m38.938 15.813l-20.844 36.13 12.06 12.06h1.844 28.719l3.281-5.656v-9.281l-11.25-19.438-13.813-13.813" fill-opacity=".094"/><g transform="matrix(.00031 0 0 .00031 11.148 15.813)"><path fill="#3176d5" d="m44385 76894h88771l-22193 38447h-88769z"/><path fill="#f3ba3c" d="M133156 76894 88772 0 44385 0 88772 76894z"/><path fill="#20a869" d="M22194 115341 66578 38447 44385 0 0 76894z"/></g></g></svg>
